findly-builder/apps/searchassist/src/assets/icons/train.svg

<svg width="13" height="13" viewBox="0 0 13 13" fill="none" xmlns="http://www.w3.org/2000/svg">
<path d="M7.774 0.519846C7.774 0.232743 7.54126 0 7.25415 0H4.24141L4.16414 0.00133539C2.95865 0.0430644 2 1.05746 2 2.29521V6.0432L2.00212 6.09052C2.02603 6.35545 2.24869 6.56305 2.51985 6.56305C2.80695 6.56305 3.03969 6.33031 3.03969 6.0432V2.29521L3.04127 2.23029C3.07366 1.56392 3.60199 1.03969 4.24141 1.03969H7.25415L7.30147 1.03757C7.5664 1.01366 7.774 0.790998 7.774 0.519846Z" fill="#0D6EFD"/>
<path d="M6.39498 12C6.10788 12 5.87514 11.7673 5.87514 11.4802C5.87514 11.209 6.08274 10.9863 6.34767 10.9624L6.39498 10.9603H9.40772C10.0471 10.9603 10.5755 10.4361 10.6079 9.76971L10.6094 9.70479V5.9568C10.6094 5.66969 10.8422 5.43695 11.1293 5.43695C11.4004 5.43695 11.6231 5.64455 11.647 5.90948L11.6491 5.9568V9.70479C11.6491 10.9425 10.6905 11.9569 9.485 11.9987L9.40772 12H6.39498Z" fill="#0D6EFD"/>
<circle cx="11" cy="2" r="1.75" stroke="#0D6EFD" stroke-width="0.5"/>
<path d="M4.03291 10.0013C4.03291 9.89438 3.94621 9.80768 3.83925 9.80768H2.07553L2.0579 9.80847C1.9592 9.81737 1.88186 9.90033 1.88186 10.0013C1.88186 10.1083 1.96857 10.195 2.07553 10.195H3.83925L3.85688 10.1942C3.95557 10.1853 4.03291 10.1024 4.03291 10.0013Z" fill="#0D6EFD"/>
<path d="M4.03291 10.8832C4.03291 10.7762 3.94621 10.6895 3.83925 10.6895H2.07553L2.0579 10.6903C1.9592 10.6992 1.88186 10.7822 1.88186 10.8832C1.88186 10.9902 1.96857 11.0769 2.07553 11.0769H3.83925L3.85688 11.0761C3.95557 11.0672 4.03291 10.9842 4.03291 10.8832Z" fill="#0D6EFD"/>
<path d="M3.44501 9.11948C3.44501 9.01252 3.3583 8.92582 3.25134 8.92582H2.07553L2.0579 8.92661C1.9592 8.93551 1.88186 9.01846 1.88186 9.11948C1.88186 9.22644 1.96857 9.31314 2.07553 9.31314H3.25134L3.26897 9.31235C3.36767 9.30345 3.44501 9.2205 3.44501 9.11948Z" fill="#0D6EFD"/>
<path fill-rule="evenodd" clip-rule="evenodd" d="M1.48762 7.75H4.42716C4.69642 7.75 4.91477 7.96806 4.91477 8.23743V11.7626C4.91477 12.0319 4.69642 12.25 4.42716 12.25H1.48762C1.21835 12.25 1 12.0319 1 11.7626V8.23743C1 7.96806 1.21835 7.75 1.48762 7.75ZM4.42716 8.13733H1.48762C1.43215 8.13733 1.38733 8.18209 1.38733 8.23743V11.7626C1.38733 11.8179 1.43215 11.8627 1.48762 11.8627H4.42716C4.48262 11.8627 4.52745 11.8179 4.52745 11.7626V8.23743C4.52745 8.18209 4.48262 8.13733 4.42716 8.13733Z" fill="#0D6EFD"/>
</svg>

<svg width="13" height="13" fill="none" xmlns="http://www.w3.org/2000/svg"><path d="M7.774.52a.52.52 0 0 0-.52-.52H4.241l-.077.001C2.96.043 2 1.057 2 2.295v3.748l.002.048a.52.52 0 0 0 1.038-.048V2.295l.001-.065c.033-.666.561-1.19 1.2-1.19h3.013l.047-.002A.52.52 0 0 0 7.774.52ZM6.395 12a.52.52 0 0 1-.047-1.038l.047-.002h3.013c.64 0 1.168-.524 1.2-1.19l.001-.065V5.957a.52.52 0 0 1 1.038-.048l.002.048v3.748c0 1.238-.958 2.252-2.164 2.294L9.408 12H6.395Z" fill="#0D6EFD"/><circle cx="11" cy="2" r="1.75" stroke="#0D6EFD" stroke-width=".5"/><path d="M4.033 10.001a.194.194 0 0 0-.194-.193H2.058a.194.194 0 0 0 .018.387h1.781A.194.194 0 0 0 4.033 10Zm0 .882a.194.194 0 0 0-.194-.193H2.058a.194.194 0 0 0 .018.387h1.781a.194.194 0 0 0 .176-.194ZM3.445 9.12a.194.194 0 0 0-.194-.194H2.058a.194.194 0 0 0 .018.387h1.193a.194.194 0 0 0 .176-.194Z" fill="#0D6EFD"/><path fill-rule="evenodd" clip-rule="evenodd" d="M1.488 7.75h2.94c.268 0 .487.218.487.487v3.526a.488.488 0 0 1-.488.487h-2.94A.487.487 0 0 1 1 11.763V8.237c0-.269.218-.487.488-.487Zm2.94.387h-2.94a.1.1 0 0 0-.1.1v3.526a.1.1 0 0 0 .1.1h2.94a.1.1 0 0 0 .1-.1V8.237a.1.1 0 0 0-.1-.1Z" fill="#0D6EFD"/></svg>
